X: 39
T: Lautrier que passa
N: Derived from Bus3035-Lautrier_que_passa.krn
C: Antoine Busnoys
%%abc-version 2.0
%%abcx-abcm2ps-target-version 5.9.1 (29 Sep 2008)
%%abc-creator hum2abc beta
%%abcx-conversion-date 2019/02/16 20:26:07
%%abc-edited-by Jesse Rodin
%%abc-edited-by Chris Gage 04-22-2015
%%abcx-initial-encoding-date 2015/06/07/
%%humdrum-veritas 333722249
%%humdrum-veritas-data 3155933881
%%linebreak <none>
%%barnumbers 0
L: 1/4
M: 2/1
Q: 1/2=120
%%staves [1 2 3 4]
V: 1 clef=treble
V: 2 clef=treble-8
V: 3 clef=treble-8
V: 4 clef=bass
K: F
[V:1] G8 | 
[V:2] G4G4 | 
[V:3] z8 | 
[V:4] z8 | 
[V:1] z8 | 
[V:2] G4G4 | 
[V:3] D8 | 
[V:4] G,,4G,,4 | 
[V:1] D4D4 | 
[V:2] B8 | 
[V:3] z8 | 
[V:4] G,,4G,,4 | 
[V:1] D4D4 | 
[V:2] B6AG | 
[V:3] D4D4 | 
[V:4] B,,8 | 
[V:1] F8 | 
[V:2] F8 | 
[V:3] D4D4 | 
[V:4] B,,6A,,G,, | 
[V:1] F6ED | 
[V:2] z8 | 
[V:3] F8 | 
[V:4] F,,8 | 
[V:1] C8 | 
[V:2] A8 | 
[V:3] F6ED | 
[V:4] z8 | 
[V:1] z4C4 | 
[V:2] z8 | 
[V:3] C4C4 | 
[V:4] A,,8 | 
[V:1] D2F3EC2 | 
[V:2] B4A4 | 
[V:3] B,4F4- | 
[V:4] z8 | 
[V:1] D4C2E2- | 
[V:2] B4c4 | 
[V:3] F2D2E2C2 | 
[V:4] B,,4A,,4 | 
[V:1] EDF3EG2- | 
[V:2] d4c4- | 
[V:3] F2D2G2E2 | 
[V:4] B,,4C,4 | 
[V:1] GFA4GF | 
[V:2] c4=B4 | 
[V:3] A2F4EF | 
[V:4] D,8 | 
[V:1] E8 | 
[V:2] c8 | 
[V:3] G2A3GFE | 
[V:4] C,8 | 
[V:1] z4G4 | 
[V:2] z8 | 
[V:3] D2G3AB2 | 
[V:4] B,,4B,,4 | 
[V:1] A4c4 | 
[V:2] z8 | 
[V:3] cBAG^F3E | 
[V:4] A,,4A,,4 | 
[V:1] B4G4- | 
[V:2] z8 | 
[V:3] G8 | 
[V:4] G,,8 | 
[V:1] G2F2G4 | 
[V:2] B4B4 | 
[V:3] z4d4- | 
[V:4] B,,6A,,G,, | 
[V:1] A2A4F2 | 
[V:2] A4A4 | 
[V:3] d2c2c4- | 
[V:4] F,,8 | 
[V:1] E4E2G2- | 
[V:2] G8 | 
[V:3] c2B2G4- | 
[V:4] C,4C,4 | 
[V:1] GFD3EF2- | 
[V:2] B6AG | 
[V:3] G2F2D4 | 
[V:4] B,,4B,,4 | 
[V:1] FEC2z2c2- | 
[V:2] F8 | 
[V:3] z4c4 | 
[V:4] A,,8 | 
[V:1] c2=B2=B2A2 | 
[V:2] z8 | 
[V:3] d6c2 | 
[V:4] G,,8 | 
[V:1] (3c4G4A4 | 
[V:2] c4c4 | 
[V:3] (3A4E4F4 | 
[V:4] z8 | 
[V:1] (3B4F4G4 | 
[V:2] B4B4 | 
[V:3] (3G4D4E4 | 
[V:4] z8 | 
[V:1] (3A4E4^F4 | 
[V:2] A8 | 
[V:3] (3F4C4D4 | 
[V:4] z8 | 
[V:1] [M:3/1]G8E4 | 
[V:2] [M:3/1]G4z4G4 | 
[V:3] [M:3/1]z4z4E4 | 
[V:4] [M:3/1]G,,12 | 
[V:1] F6E2D3C | 
[V:2] d6e2f3g | 
[V:3] D12 | 
[V:4] z12 | 
[V:1] C8z4 | 
[V:2] e6c2d4 | 
[V:3] A8G4 | 
[V:4] z4z4G,,4 | 
[V:1] z12 | 
[V:2] B6G2A4 | 
[V:3] F6E2D4 | 
[V:4] D,6E,2F,3G, | 
[V:1] G8F4 | 
[V:2] G8z4 | 
[V:3] G4B6A2 | 
[V:4] E,6C,2D,4 | 
[V:1] G4B4c4 | 
[V:2] z12 | 
[V:3] G8^F4 | 
[V:4] B,,6G,,2A,,4 | 
[V:1] B6A2G4 | 
[V:2] z4z4G4 | 
[V:3] G8E4 | 
[V:4] G,,8z4 | 
[V:1] F4A6G2 | 
[V:2] d6e2f3g | 
[V:3] D4F6E2 | 
[V:4] z12 | 
[V:1] G6E2G3F | 
[V:2] e6c2d4 | 
[V:3] C8z4 | 
[V:4] z4z4G,,4 | 
[V:1] D8A4 | 
[V:2] B6G2A4 | 
[V:3] z12 | 
[V:4] D,6E,2F,3G, | 
[V:1] B6ABA3G | 
[V:2] G12 | 
[V:3] G4E4F4 | 
[V:4] E,6C,2D,4 | 
[V:1] G6FE^F3E | 
[V:2] z12 | 
[V:3] G4B4c4 | 
[V:4] B,,6C,2A,,4 | 
[V:1] G4z4G4 | 
[V:2] z4z4G4 | 
[V:3] B8z4 | 
[V:4] G,,8z4 | 
[V:1] G6E2F2G2 | 
[V:2] B6AGA2B2 | 
[V:3] z12 | 
[V:4] z12 | 
[V:1] E2A3GF4B2- | 
[V:2] c4A4d4 | 
[V:3] z12 | 
[V:4] z12 | 
[V:1] BAG4F2G2E2 | 
[V:2] B6A2B2G2 | 
[V:3] z12 | 
[V:4] z12 | 
[V:1] F8z4 | 
[V:2] A8z4 | 
[V:3] z4z4B3c | 
[V:4] z4z4G,,4 | 
[V:1] z12 | 
[V:2] z12 | 
[V:3] d2d4cBc2BA | 
[V:4] B,,6G,,2A,,2B,,2 | 
[V:1] z12 | 
[V:2] z12 | 
[V:3] G2A3FF4B2 | 
[V:4] C,4A,,4D,4 | 
[V:1] z12 | 
[V:2] z12 | 
[V:3] A2G4^FE^F4 | 
[V:4] C,2B,,4A,,G,,A,,4 | 
[V:1] [M:2/1]G8 | 
[V:2] [M:2/1]z8 | 
[V:3] [M:2/1]G8 | 
[V:4] [M:2/1]G,,8 | 
[V:1] G4G4 | 
[V:2] G4G4 | 
[V:3] z8 | 
[V:4] z8 | 
[V:1] G6FE | 
[V:2] G4G4 | 
[V:3] G8 | 
[V:4] G,,4G,,4 | 
[V:1] D4G4- | 
[V:2] B8 | 
[V:3] G4G4 | 
[V:4] G,,4G,,4 | 
[V:1] G2F2D4 | 
[V:2] B6AG | 
[V:3] G6FE | 
[V:4] B,,8 | 
[V:1] z4D4- | 
[V:2] F8 | 
[V:3] D6E2 | 
[V:4] B,,6A,,G,, | 
[V:1] D2C2A,4 | 
[V:2] z8 | 
[V:3] F8 | 
[V:4] F,,8 | 
[V:1] G,4C4 | 
[V:2] B4A4 | 
[V:3] G4E4 | 
[V:4] z8 | 
[V:1] D4C4 | 
[V:2] B4c4 | 
[V:3] D4A4- | 
[V:4] B,,4A,,4 | 
[V:1] F4E4 | 
[V:2] d4c4- | 
[V:3] A2G2G4- | 
[V:4] B,,4C,4 | 
[V:1] (3:2:2F8D4 | 
[V:2] c4=B4 | 
[V:3] G4F4 | 
[V:4] D,8 | 
[V:1] E4(3:2:2D2E4 | 
[V:2] c8 | 
[V:3] G4A4- | 
[V:4] C,8 | 
[V:1] (3:2:2F8D4 | 
[V:2] z8 | 
[V:3] A2G2G4- | 
[V:4] B,,4B,,4 | 
[V:1] E4(3:2:2D2C4 | 
[V:2] z8 | 
[V:3] G4^F4 | 
[V:4] A,,4A,,4 | 
[V:1] B,4D4- | 
[V:2] z8 | 
[V:3] G8 | 
[V:4] G,,8 | 
[V:1] D2E2F4- | 
[V:2] B4B4 | 
[V:3] D8 | 
[V:4] B,,6A,,G,, | 
[V:1] F2G2A3G | 
[V:2] A4A4 | 
[V:3] z4F4 | 
[V:4] F,,8 | 
[V:1] E4G4- | 
[V:2] G8 | 
[V:3] (3:2:2G8E4 | 
[V:4] C,4C,4 | 
[V:1] G2F2D4- | 
[V:2] B6AG | 
[V:3] (3:2:1D4F4(3:2:1G2 | 
[V:4] B,,4B,,4 | 
[V:1] D4C4 | 
[V:2] F8 | 
[V:3] A4A4 | 
[V:4] A,,8 | 
[V:1] B,4G,4 | 
[V:2] z8 | 
[V:3] D4E4 | 
[V:4] G,,8 | 
[V:1] A,8 | 
[V:2] c4c4 | 
[V:3] F8 | 
[V:4] z8 | 
[V:1] G,4G4- | 
[V:2] B4B4 | 
[V:3] G8 | 
[V:4] (3:2:2G,,8B,,4 | 
[V:1] G4^F4 | 
[V:2] A8 | 
[V:3] z8 | 
[V:4] (3:2:2C,4D,8 | 
[V:1] G8 |]  
[V:2] G8 |]  
[V:3] d8 |]  
[V:4] G,,8 |]  



